output/footprints/LKBD_StabMX.pretty/Stabilizer_MX_2U.svg

<?xml version="1.0" standalone="no"?>
 <!DOCTYPE svg PUBLIC "-//W3C//DTD SVG 1.1//EN" 
 "http://www.w3.org/Graphics/SVG/1.1/DTD/svg11.dtd"> 
<svg
  xmlns:svg="http://www.w3.org/2000/svg"
  xmlns="http://www.w3.org/2000/svg"
  xmlns:xlink="http://www.w3.org/1999/xlink"
  version="1.1"
  width="38.1762mm" height="20.6248mm" viewBox="0.0000 0.0000 38.1762 20.6248">
<title>SVG Image created as Stabilizer_MX_2U.svg date 2025/05/12 22:52:39 </title>
  <desc>Image generated by PCBNEW </desc>
<g style="fill:#000000; fill-opacity:1.0000;stroke:#000000; stroke-opacity:1.0000;
stroke-linecap:round; stroke-linejoin:round;"
 transform="translate(0 0) scale(1 1)">
</g>
<g style="fill:none; 
stroke:#585D84; stroke-width:0.0212; stroke-opacity:1; 
stroke-linecap:round; stroke-linejoin:round;">
<circle cx="7.1620" cy="2.5900" r="1.5250" /> 
</g>
<g style="fill:none; 
stroke:#585D84; stroke-width:0.0212; stroke-opacity:1; 
stroke-linecap:round; stroke-linejoin:round;">
<circle cx="7.1620" cy="17.9900" r="1.9939" /> 
</g>
<g style="fill:none; 
stroke:#585D84; stroke-width:0.0212; stroke-opacity:1; 
stroke-linecap:round; stroke-linejoin:round;">
<circle cx="31.0380" cy="2.5900" r="1.5250" /> 
</g>
<g style="fill:none; 
stroke:#585D84; stroke-width:0.0212; stroke-opacity:1; 
stroke-linecap:round; stroke-linejoin:round;">
<circle cx="31.0380" cy="17.9900" r="1.9939" /> 
</g>
<g style="fill:none; 
stroke:#AFAFAF; stroke-width:0.1500; stroke-opacity:1; 
stroke-linecap:round; stroke-linejoin:round;">
<text x="19.1000" y="9.2750"
textLength="12.9643" font-size="1.3333" lengthAdjust="spacingAndGlyphs"
text-anchor="middle" opacity="0" stroke-opacity="0">Stabilizer_MX_2U</text>
<g class="stroked-text"><desc>Stabilizer_MX_2U</desc>
<path d="M12.9333 9.1822
L13.0762 9.2298
" />
<path d="M13.0762 9.2298
L13.3143 9.2298
" />
<path d="M13.3143 9.2298
L13.4095 9.1822
" />
<path d="M13.4095 9.1822
L13.4571 9.1346
" />
<path d="M13.4571 9.1346
L13.5048 9.0393
" />
<path d="M13.5048 9.0393
L13.5048 8.9441
" />
<path d="M13.5048 8.9441
L13.4571 8.8489
" />
<path d="M13.4571 8.8489
L13.4095 8.8012
" />
<path d="M13.4095 8.8012
L13.3143 8.7536
" />
<path d="M13.3143 8.7536
L13.1238 8.7060
" />
<path d="M13.1238 8.7060
L13.0286 8.6584
" />
<path d="M13.0286 8.6584
L12.9810 8.6108
" />
<path d="M12.9810 8.6108
L12.9333 8.5155
" />
<path d="M12.9333 8.5155
L12.9333 8.4203
" />
<path d="M12.9333 8.4203
L12.9810 8.3251
" />
<path d="M12.9810 8.3251
L13.0286 8.2774
" />
<path d="M13.0286 8.2774
L13.1238 8.2298
" />
<path d="M13.1238 8.2298
L13.3619 8.2298
" />
<path d="M13.3619 8.2298
L13.5048 8.2774
" />
<path d="M13.7905 8.5632
L14.1714 8.5632
" />
<path d="M13.9333 8.2298
L13.9333 9.0870
" />
<path d="M13.9333 9.0870
L13.9810 9.1822
" />
<path d="M13.9810 9.1822
L14.0762 9.2298
" />
<path d="M14.0762 9.2298
L14.1714 9.2298
" />
<path d="M14.9333 9.2298
L14.9333 8.7060
" />
<path d="M14.9333 8.7060
L14.8857 8.6108
" />
<path d="M14.8857 8.6108
L14.7905 8.5632
" />
<path d="M14.7905 8.5632
L14.6000 8.5632
" />
<path d="M14.6000 8.5632
L14.5048 8.6108
" />
<path d="M14.9333 9.1822
L14.8381 9.2298
" />
<path d="M14.8381 9.2298
L14.6000 9.2298
" />
<path d="M14.6000 9.2298
L14.5048 9.1822
" />
<path d="M14.5048 9.1822
L14.4571 9.0870
" />
<path d="M14.4571 9.0870
L14.4571 8.9917
" />
<path d="M14.4571 8.9917
L14.5048 8.8965
" />
<path d="M14.5048 8.8965
L14.6000 8.8489
" />
<path d="M14.6000 8.8489
L14.8381 8.8489
" />
<path d="M14.8381 8.8489
L14.9333 8.8012
" />
<path d="M15.4095 9.2298
L15.4095 8.2298
" />
<path d="M15.4095 8.6108
L15.5048 8.5632
" />
<path d="M15.5048 8.5632
L15.6952 8.5632
" />
<path d="M15.6952 8.5632
L15.7905 8.6108
" />
<path d="M15.7905 8.6108
L15.8381 8.6584
" />
<path d="M15.8381 8.6584
L15.8857 8.7536
" />
<path d="M15.8857 8.7536
L15.8857 9.0393
" />
<path d="M15.8857 9.0393
L15.8381 9.1346
" />
<path d="M15.8381 9.1346
L15.7905 9.1822
" />
<path d="M15.7905 9.1822
L15.6952 9.2298
" />
<path d="M15.6952 9.2298
L15.5048 9.2298
" />
<path d="M15.5048 9.2298
L15.4095 9.1822
" />
<path d="M16.3143 9.2298
L16.3143 8.5632
" />
<path d="M16.3143 8.2298
L16.2667 8.2774
" />
<path d="M16.2667 8.2774
L16.3143 8.3251
" />
<path d="M16.3143 8.3251
L16.3619 8.2774
" />
<path d="M16.3619 8.2774
L16.3143 8.2298
" />
<path d="M16.3143 8.2298
L16.3143 8.3251
" />
<path d="M16.9333 9.2298
L16.8381 9.1822
" />
<path d="M16.8381 9.1822
L16.7905 9.0870
" />
<path d="M16.7905 9.0870
L16.7905 8.2298
" />
<path d="M17.3143 9.2298
L17.3143 8.5632
" />
<path d="M17.3143 8.2298
L17.2667 8.2774
" />
<path d="M17.2667 8.2774
L17.3143 8.3251
" />
<path d="M17.3143 8.3251
L17.3619 8.2774
" />
<path d="M17.3619 8.2774
L17.3143 8.2298
" />
<path d="M17.3143 8.2298
L17.3143 8.3251
" />
<path d="M17.6952 8.5632
L18.2190 8.5632
" />
<path d="M18.2190 8.5632
L17.6952 9.2298
" />
<path d="M17.6952 9.2298
L18.2190 9.2298
" />
<path d="M18.9810 9.1822
L18.8857 9.2298
" />
<path d="M18.8857 9.2298
L18.6952 9.2298
" />
<path d="M18.6952 9.2298
L18.6000 9.1822
" />
<path d="M18.6000 9.1822
L18.5524 9.0870
" />
<path d="M18.5524 9.0870
L18.5524 8.7060
" />
<path d="M18.5524 8.7060
L18.6000 8.6108
" />
<path d="M18.6000 8.6108
L18.6952 8.5632
" />
<path d="M18.6952 8.5632
L18.8857 8.5632
" />
<path d="M18.8857 8.5632
L18.9810 8.6108
" />
<path d="M18.9810 8.6108
L19.0286 8.7060
" />
<path d="M19.0286 8.7060
L19.0286 8.8012
" />
<path d="M19.0286 8.8012
L18.5524 8.8965
" />
<path d="M19.4571 9.2298
L19.4571 8.5632
" />
<path d="M19.4571 8.7536
L19.5048 8.6584
" />
<path d="M19.5048 8.6584
L19.5524 8.6108
" />
<path d="M19.5524 8.6108
L19.6476 8.5632
" />
<path d="M19.6476 8.5632
L19.7429 8.5632
" />
<path d="M19.8381 9.3251
L20.6000 9.3251
" />
<path d="M20.8381 9.2298
L20.8381 8.2298
" />
<path d="M20.8381 8.2298
L21.1714 8.9441
" />
<path d="M21.1714 8.9441
L21.5048 8.2298
" />
<path d="M21.5048 8.2298
L21.5048 9.2298
" />
<path d="M21.8857 8.2298
L22.5524 9.2298
" />
<path d="M22.5524 8.2298
L21.8857 9.2298
" />
<path d="M22.6952 9.3251
L23.4571 9.3251
" />
<path d="M23.6476 8.3251
L23.6952 8.2774
" />
<path d="M23.6952 8.2774
L23.7905 8.2298
" />
<path d="M23.7905 8.2298
L24.0286 8.2298
" />
<path d="M24.0286 8.2298
L24.1238 8.2774
" />
<path d="M24.1238 8.2774
L24.1714 8.3251
" />
<path d="M24.1714 8.3251
L24.2190 8.4203
" />
<path d="M24.2190 8.4203
L24.2190 8.5155
" />
<path d="M24.2190 8.5155
L24.1714 8.6584
" />
<path d="M24.1714 8.6584
L23.6000 9.2298
" />
<path d="M23.6000 9.2298
L24.2190 9.2298
" />
<path d="M24.6476 8.2298
L24.6476 9.0393
" />
<path d="M24.6476 9.0393
L24.6952 9.1346
" />
<path d="M24.6952 9.1346
L24.7429 9.1822
" />
<path d="M24.7429 9.1822
L24.8381 9.2298
" />
<path d="M24.8381 9.2298
L25.0286 9.2298
" />
<path d="M25.0286 9.2298
L25.1238 9.1822
" />
<path d="M25.1238 9.1822
L25.1714 9.1346
" />
<path d="M25.1714 9.1346
L25.2190 9.0393
" />
<path d="M25.2190 9.0393
L25.2190 8.2298
" />
</g><text x="19.1000" y="10.8750"
textLength="4.5357" font-size="1.3333" lengthAdjust="spacingAndGlyphs"
text-anchor="middle" opacity="0" stroke-opacity="0">REF**</text>
<g class="stroked-text"><desc>REF**</desc>
<path d="M17.7667 10.8298
L17.4333 10.3536
" />
<path d="M17.1952 10.8298
L17.1952 9.8298
" />
<path d="M17.1952 9.8298
L17.5762 9.8298
" />
<path d="M17.5762 9.8298
L17.6714 9.8774
" />
<path d="M17.6714 9.8774
L17.7190 9.9251
" />
<path d="M17.7190 9.9251
L17.7667 10.0203
" />
<path d="M17.7667 10.0203
L17.7667 10.1631
" />
<path d="M17.7667 10.1631
L17.7190 10.2584
" />
<path d="M17.7190 10.2584
L17.6714 10.3060
" />
<path d="M17.6714 10.3060
L17.5762 10.3536
" />
<path d="M17.5762 10.3536
L17.1952 10.3536
" />
<path d="M18.1952 10.3060
L18.5286 10.3060
" />
<path d="M18.6714 10.8298
L18.1952 10.8298
" />
<path d="M18.1952 10.8298
L18.1952 9.8298
" />
<path d="M18.1952 9.8298
L18.6714 9.8298
" />
<path d="M19.4333 10.3060
L19.1000 10.3060
" />
<path d="M19.1000 10.8298
L19.1000 9.8298
" />
<path d="M19.1000 9.8298
L19.5762 9.8298
" />
<path d="M20.1000 9.8298
L20.1000 10.0679
" />
<path d="M19.8619 9.9727
L20.1000 10.0679
" />
<path d="M20.1000 10.0679
L20.3381 9.9727
" />
<path d="M19.9571 10.2584
L20.1000 10.0679
" />
<path d="M20.1000 10.0679
L20.2429 10.2584
" />
<path d="M20.8619 9.8298
L20.8619 10.0679
" />
<path d="M20.6238 9.9727
L20.8619 10.0679
" />
<path d="M20.8619 10.0679
L21.1000 9.9727
" />
<path d="M20.7190 10.2584
L20.8619 10.0679
" />
<path d="M20.8619 10.0679
L21.0048 10.2584
" />
</g></g>
<g style="fill:none; 
stroke:#AFAFAF; stroke-width:0.1000; stroke-opacity:1; 
stroke-linecap:round; stroke-linejoin:round;">
<path d="M3.7620 1.3650
L3.7620 19.3900
" />
<path d="M3.7620 19.3900
L5.4649 19.3900
" />
<path d="M5.5811 1.3650
L3.7620 1.3650
" />
<path d="M8.7429 1.3650
L10.5620 1.3650
" />
<path d="M8.8591 19.3900
L10.5620 19.3900
" />
<path d="M10.5620 19.3900
L10.5620 1.3650
" />
<path d="M27.6380 1.3650
L27.6380 19.3900
" />
<path d="M27.6380 19.3900
L29.3409 19.3900
" />
<path d="M29.4571 1.3650
L27.6380 1.3650
" />
<path d="M32.6189 1.3650
L34.4380 1.3650
" />
<path d="M32.7351 19.3900
L34.4380 19.3900
" />
<path d="M34.4380 19.3900
L34.4380 1.3650
" />
<path d="M8.7429 1.3650 A2.0000 2.0000 0.0 0 0 5.5811 1.3650" />
<path d="M5.4649 19.3900 A2.2000 2.2000 0.0 0 0 8.8591 19.3900" />
<path d="M32.6189 1.3650 A2.0000 2.0000 0.0 0 0 29.4571 1.3650" />
<path d="M29.3409 19.3900 A2.2000 2.2000 0.0 0 0 32.7351 19.3900" />
</g>
<g style="fill:none; 
stroke:#AFAFAF; stroke-width:0.0212; stroke-opacity:1; 
stroke-linecap:round; stroke-linejoin:round;">
<circle cx="7.1620" cy="2.5900" r="1.5250" /> 
</g>
<g style="fill:none; 
stroke:#AFAFAF; stroke-width:0.0212; stroke-opacity:1; 
stroke-linecap:round; stroke-linejoin:round;">
<circle cx="7.1620" cy="17.9900" r="1.9939" /> 
</g>
<g style="fill:none; 
stroke:#AFAFAF; stroke-width:0.0212; stroke-opacity:1; 
stroke-linecap:round; stroke-linejoin:round;">
<circle cx="31.0380" cy="2.5900" r="1.5250" /> 
</g>
<g style="fill:none; 
stroke:#AFAFAF; stroke-width:0.0212; stroke-opacity:1; 
stroke-linecap:round; stroke-linejoin:round;">
<circle cx="31.0380" cy="17.9900" r="1.9939" /> 
</g>
<g style="fill:none; 
stroke:#C2C2C2; stroke-width:0.1200; stroke-opacity:1; 
stroke-linecap:round; stroke-linejoin:round;">
<path d="M12.1000 2.5750
L12.1000 3.5750
" />
<path d="M12.1000 2.5750
L13.1000 2.5750
" />
<path d="M12.1000 16.5750
L12.1000 15.5750
" />
<path d="M13.1000 16.5750
L12.1000 16.5750
" />
<path d="M25.1000 2.5750
L26.1000 2.5750
" />
<path d="M26.1000 2.5750
L26.1000 3.5750
" />
<path d="M26.1000 15.5750
L26.1000 16.5750
" />
<path d="M26.1000 16.5750
L25.1000 16.5750
" />
<path style="fill:none; 
stroke:#C2C2C2; stroke-width:0.1000; stroke-opacity:1; 
stroke-linecap:round; stroke-linejoin:round;fill:none"
d="M 0.0500,0.0500
38.1500,0.0500
38.1500,19.1000
0.0500,19.1000
Z" /> 
</g> 
</svg>

<svg xmlns="http://www.w3.org/2000/svg" width="144.288" height="77.952" viewBox="0 0 38.176 20.625">
    <circle cx="7.162" cy="2.59" r="1.525" style="fill:none;stroke:#585d84;stroke-width:.0212;stroke-opacity:1;stroke-linecap:round;stroke-linejoin:round"/>
    <circle cx="7.162" cy="17.99" r="1.994" style="fill:none;stroke:#585d84;stroke-width:.0212;stroke-opacity:1;stroke-linecap:round;stroke-linejoin:round"/>
    <circle cx="31.038" cy="2.59" r="1.525" style="fill:none;stroke:#585d84;stroke-width:.0212;stroke-opacity:1;stroke-linecap:round;stroke-linejoin:round"/>
    <circle cx="31.038" cy="17.99" r="1.994" style="fill:none;stroke:#585d84;stroke-width:.0212;stroke-opacity:1;stroke-linecap:round;stroke-linejoin:round"/>
    <g style="fill:none;stroke:#afafaf;stroke-width:.15;stroke-opacity:1;stroke-linecap:round;stroke-linejoin:round">
        <g class="stroked-text">
            <path d="m12.933 9.182.143.048M13.076 9.23h.238M13.314 9.23l.095-.048M13.41 9.182l.047-.047M13.457 9.135l.048-.096M13.505 9.04v-.096M13.505 8.944l-.048-.095M13.457 8.849 13.41 8.8M13.41 8.801l-.096-.047M13.314 8.754l-.19-.048M13.124 8.706l-.095-.048M13.029 8.658l-.048-.047M12.981 8.61l-.048-.095M12.933 8.516V8.42M12.933 8.42l.048-.095M12.981 8.325l.048-.048M13.029 8.277l.095-.047M13.124 8.23h.238M13.362 8.23l.143.047M13.79 8.563h.381M13.933 8.23v.857M13.933 9.087l.048.095M13.981 9.182l.095.048M14.076 9.23h.095M14.933 9.23v-.524M14.933 8.706l-.047-.095M14.886 8.61l-.095-.047M14.79 8.563h-.19M14.6 8.563l-.095.048M14.933 9.182l-.095.048M14.838 9.23H14.6M14.6 9.23l-.095-.048M14.505 9.182l-.048-.095M14.457 9.087v-.095M14.457 8.992l.048-.096M14.505 8.897l.095-.048M14.6 8.849h.238M14.838 8.849l.095-.048M15.41 9.23v-1M15.41 8.61l.095-.047M15.505 8.563h.19M15.695 8.563l.095.048M15.79 8.61l.048.048M15.838 8.658l.048.096M15.886 8.754v.285M15.886 9.04l-.048.095M15.838 9.135l-.047.047M15.79 9.182l-.095.048M15.695 9.23h-.19M15.505 9.23l-.096-.048M16.314 9.23v-.667M16.314 8.23l-.047.047M16.267 8.277l.047.048M16.314 8.325l.048-.048M16.362 8.277l-.048-.047M16.314 8.23v.095M16.933 9.23l-.095-.048M16.838 9.182l-.047-.095M16.79 9.087V8.23M17.314 9.23v-.667M17.314 8.23l-.047.047M17.267 8.277l.047.048M17.314 8.325l.048-.048M17.362 8.277l-.048-.047M17.314 8.23v.095M17.695 8.563h.524M18.219 8.563l-.524.667M17.695 9.23h.524M18.981 9.182l-.095.048M18.886 9.23h-.19M18.695 9.23l-.095-.048M18.6 9.182l-.048-.095M18.552 9.087v-.381M18.552 8.706l.048-.095M18.6 8.61l.095-.047M18.695 8.563h.19M18.886 8.563l.095.048M18.981 8.61l.048.096M19.029 8.706v.095M19.029 8.801l-.477.095M19.457 9.23v-.667M19.457 8.754l.048-.096M19.505 8.658l.047-.047M19.552 8.61l.096-.047M19.648 8.563h.095M19.838 9.325h.762M20.838 9.23v-1M20.838 8.23l.333.714M21.171 8.944l.334-.714M21.505 8.23v1M21.886 8.23l.666 1M22.552 8.23l-.666 1M22.695 9.325h.762M23.648 8.325l.047-.048M23.695 8.277l.096-.047M23.79 8.23h.239M24.029 8.23l.095.047M24.124 8.277l.047.048M24.171 8.325l.048.095M24.219 8.42v.095M24.219 8.516l-.048.142M24.171 8.658l-.571.572M23.6 9.23h.619M24.648 8.23v.81M24.648 9.04l.047.095M24.695 9.135l.048.047M24.743 9.182l.095.048M24.838 9.23h.19M25.029 9.23l.095-.048M25.124 9.182l.047-.047M25.171 9.135l.048-.096M25.219 9.04v-.81"/>
        </g>
        <g class="stroked-text">
            <path d="m17.767 10.83-.334-.476M17.195 10.83v-1M17.195 9.83h.381M17.576 9.83l.095.047M17.671 9.877l.048.048M17.719 9.925l.048.095M17.767 10.02v.143M17.767 10.163l-.048.095M17.719 10.258l-.048.048M17.671 10.306l-.095.048M17.576 10.354h-.38M18.195 10.306h.334M18.671 10.83h-.476M18.195 10.83v-1M18.195 9.83h.476M19.433 10.306H19.1M19.1 10.83v-1M19.1 9.83h.476M20.1 9.83v.238M19.862 9.973l.238.095M20.1 10.068l.238-.095M19.957 10.258l.143-.19M20.1 10.068l.143.19M20.862 9.83v.238M20.624 9.973l.238.095M20.862 10.068l.238-.095M20.719 10.258l.143-.19M20.862 10.068l.143.19"/>
        </g>
    </g>
    <g style="fill:none;stroke:#afafaf;stroke-width:.1;stroke-opacity:1;stroke-linecap:round;stroke-linejoin:round">
        <path d="M3.762 1.365V19.39M3.762 19.39h1.703M5.581 1.365H3.762M8.743 1.365h1.819M8.86 19.39h1.702M10.562 19.39V1.365M27.638 1.365V19.39M27.638 19.39h1.703M29.457 1.365h-1.819M32.619 1.365h1.819M32.735 19.39h1.703M34.438 19.39V1.365M8.743 1.365a2 2 0 0 0-3.162 0M5.465 19.39a2.2 2.2 0 0 0 3.394 0M32.619 1.365a2 2 0 0 0-3.162 0M29.34 19.39a2.2 2.2 0 0 0 3.395 0"/>
    </g>
    <circle cx="7.162" cy="2.59" r="1.525" style="fill:none;stroke:#afafaf;stroke-width:.0212;stroke-opacity:1;stroke-linecap:round;stroke-linejoin:round"/>
    <circle cx="7.162" cy="17.99" r="1.994" style="fill:none;stroke:#afafaf;stroke-width:.0212;stroke-opacity:1;stroke-linecap:round;stroke-linejoin:round"/>
    <circle cx="31.038" cy="2.59" r="1.525" style="fill:none;stroke:#afafaf;stroke-width:.0212;stroke-opacity:1;stroke-linecap:round;stroke-linejoin:round"/>
    <circle cx="31.038" cy="17.99" r="1.994" style="fill:none;stroke:#afafaf;stroke-width:.0212;stroke-opacity:1;stroke-linecap:round;stroke-linejoin:round"/>
    <g style="fill:none;stroke:#c2c2c2;stroke-width:.12;stroke-opacity:1;stroke-linecap:round;stroke-linejoin:round">
        <path d="M12.1 2.575v1M12.1 2.575h1M12.1 16.575v-1M13.1 16.575h-1M25.1 2.575h1M26.1 2.575v1M26.1 15.575v1M26.1 16.575h-1"/>
        <path d="M.05.05h38.1V19.1H.05Z" style="stroke:#c2c2c2;stroke-width:.1;stroke-opacity:1;stroke-linecap:round;stroke-linejoin:round;fill:none"/>
    </g>
</svg>
